X:1
T:Undun
C:Randy Bachman
L:1/8
M:C
I:linebreak $
K:G
"F#ø" F F2"B7" F2 B2 F |"F#ø" F F2"B7" F2 B2 F |"F#ø" F F3"B7" F4 | z4 (3B2 A2 G2 |$
"Em" G E3 z4 |"A7" z E GE GE GE |"F#m" A B3 B4 |"B7" z A AG AG AG |$"F#m" A B3"Gm" B2"G#m" z2 |
"Am" z4 (3e2 d2 e2 |"G" d8 |"F#m" z4"B7" (3B2 A2 G2 |$"Em" G E3 z4 |"A7" z E GE GE GE |
"F#m" A B3 B4 |"B7" z A AG A A2 G |$"F#m" A B3"Gm" B2"G#m" z2 |"Am" z4 ed ed |"G" g8 | Bd BA G4 :|$
"F#ø" F F2"B7" F2 B2 F |"F#ø" F F2"B7" F2 B2 F |"F#ø" F F3"B7" F4 | z4 (3B2 A2 G2 |:$
"Em/B" G E3"_Fine" z4 |"Em/C" z8 |"Em/C#" z8 |"Em/C" z8 ::$"Em/B" z4 (3e2 d2 e2 |"Em/C" d2 B2 z4 |
"Em/C#" z2 z G AG A2 |"Em/C" A2 B2 B4 |$"Em/B" z4 (3e2 d2 e2 |"Em/C" d2 B2 z4 |
"Em/C#" z2 z G AG A2 |"Em/C""_D.C. al Fine" B8 :|

